packages/kaspersky-hexa-ui-icons/src/iconsSVGs/24/ServerHistorian.svg

<svg width="24" height="24" viewBox="0 0 24 24" fill="none" xmlns="http://www.w3.org/2000/svg">
<path fill-rule="evenodd" clip-rule="evenodd" d="M3.98535 5.49764C3.98535 9.93197 3.98549 14.3719 3.98569 18.8084C3.98569 19.3997 4.29279 19.9017 4.66701 20.2743C5.04919 20.6548 5.57581 20.9806 6.21673 21.2474C7.5007 21.7819 9.39402 22.1421 11.9899 22.1421C14.586 22.1421 16.4838 21.7818 17.7722 21.2481C18.4151 20.9817 18.944 20.6565 19.3281 20.2769C19.7035 19.906 20.0154 19.4033 20.0154 18.8084C20.0154 18.4546 20.006 15.1758 19.9965 11.9891C19.9901 9.82554 19.9978 7.65971 19.9978 5.49764C19.9978 4.13878 18.9366 3.42735 18.5358 3.19284C17.9953 2.87658 17.3463 2.66038 16.7191 2.50516C15.4337 2.18706 13.7632 2.01123 11.9916 2.01123C10.2199 2.01123 8.54943 2.18706 7.26407 2.50516C6.63687 2.66038 5.98784 2.87658 5.44733 3.19284C5.04652 3.42735 3.98535 4.13878 3.98535 5.49764ZM16.3717 6.51469C16.339 6.52331 16.3059 6.53184 16.2724 6.54027C15.1829 6.8142 13.6674 6.98405 11.9916 6.98405C10.3158 6.98405 8.80026 6.8142 7.71079 6.54027C7.67726 6.53184 7.64414 6.52331 7.61142 6.51469C6.603 6.24881 5.98535 5.89107 5.98535 5.49764C5.98535 5.10421 6.603 4.74648 7.61142 4.48059C7.64414 4.47197 7.67726 4.46344 7.71079 4.45501C8.80026 4.18108 10.3158 4.01123 11.9916 4.01123C13.6674 4.01123 15.1829 4.18108 16.2724 4.45501C16.3059 4.46344 16.339 4.47197 16.3717 4.48059C17.3802 4.74648 17.9978 5.10421 17.9978 5.49764C17.9978 5.89107 17.3802 6.24881 16.3717 6.51469ZM16.7191 8.49012C15.4337 8.80822 13.7632 8.98405 11.9916 8.98405C10.2199 8.98405 8.54943 8.80822 7.26407 8.49012C6.83405 8.3837 6.39376 8.24861 5.98522 8.07226L5.9854 12.1199C6.02409 12.1951 6.21506 12.5093 7.03425 12.8505C7.97542 13.2426 9.55003 13.5723 11.9898 13.5723C14.4267 13.5723 16.0353 13.235 16.9952 12.8391C17.4762 12.6408 17.7562 12.4434 17.9 12.3011C17.9519 12.2497 17.9788 12.2136 17.9916 12.1935C17.9929 12.1743 17.9947 12.1553 17.997 12.1364C17.9968 12.0893 17.9967 12.0421 17.9966 11.995L17.9848 8.07789C17.58 8.25149 17.1445 8.38484 16.7191 8.49012ZM18.0041 14.5809C17.924 14.6177 17.8418 14.6534 17.7577 14.6881C16.4756 15.2169 14.5844 15.5723 11.9898 15.5723C9.39821 15.5723 7.53572 15.2261 6.26514 14.6967C6.17007 14.6571 6.07678 14.6158 5.98551 14.5727L5.98569 18.7479C5.99921 18.769 6.02651 18.8056 6.07811 18.857C6.22306 19.0013 6.50411 19.2007 6.98533 19.401C7.94561 19.8007 9.5544 20.1421 11.9899 20.1421C14.4252 20.1421 16.0401 19.8008 17.0067 19.4004C17.4912 19.1996 17.7753 18.9996 17.9224 18.8543C17.9739 18.8034 18.0015 18.767 18.0154 18.7457C18.0148 18.3365 18.0101 16.6311 18.0041 14.5809ZM18.0279 18.7235C18.0279 18.7235 18.0276 18.7245 18.0266 18.7264L18.0279 18.7235ZM5.97389 18.7266L5.97507 18.7294C5.97418 18.7276 5.97389 18.7266 5.97389 18.7266Z" fill="black"/>
</svg>

<svg xmlns="http://www.w3.org/2000/svg" width="24" height="24" fill="none" viewBox="0 0 24 24"><path fill="#000" fill-rule="evenodd" d="M3.9851 5.4976c0 4.4344.0002 8.8743.0004 13.3108 0 .5913.307 1.0933.6813 1.4659.3821.3805.9088.7063 1.5497.9731 1.284.5345 3.1773.8947 5.7732.8947 2.5961 0 4.4939-.3603 5.7822-.894.643-.2664 1.1718-.5916 1.556-.9712.3754-.3709.6873-.8736.6873-1.4685 0-.3538-.0095-3.6326-.0189-6.8193-.0065-2.1636.0013-4.3294.0013-6.4915 0-1.3588-1.0612-2.0702-1.462-2.3048-.5405-.3162-1.1896-.5324-1.8168-.6876-1.2853-.3181-2.9558-.494-4.7275-.494s-3.4421.1759-4.7275.494c-.6272.1552-1.2762.3714-1.8167.6876-.4008.2346-1.462.946-1.462 2.3048m12.3864 1.017a9 9 0 0 1-.0994.0257c-1.0895.2739-2.605.4437-4.2808.4437S8.8 6.8143 7.7105 6.5404a9 9 0 0 1-.0993-.0256c-1.0084-.2659-1.626-.6236-1.626-1.017 0-.3935.6176-.7512 1.626-1.0171a9 9 0 0 1 .0993-.0256c1.0895-.274 2.605-.4438 4.2808-.4438s3.1913.1699 4.2808.4438q.0503.0127.0994.0256c1.0084.2659 1.6261.6236 1.6261 1.017 0 .3935-.6177.7512-1.6261 1.017m.3473 1.9755c-1.2853.3181-2.9558.494-4.7275.494s-3.4421-.1759-4.7275-.494c-.43-.1064-.8703-.2415-1.2788-.4178l.0002 4.0476c.0386.0752.2296.3894 1.0488.7306.9412.3921 2.5158.7218 4.9556.7218 2.4368 0 4.0455-.3373 5.0053-.7332.481-.1983.7611-.3957.9049-.538.0519-.0514.0787-.0875.0916-.1076a1 1 0 0 1 .0053-.0571l-.0004-.1414-.0117-3.9171c-.4048.1736-.8403.307-1.2658.4122m1.2851 6.0908a7 7 0 0 1-.2464.1072c-1.2822.5288-3.1734.8842-5.7679.8842-2.5916 0-4.4541-.3462-5.7247-.8756a6.6 6.6 0 0 1-.2796-.124l.0001 4.1752c.0136.0211.0409.0577.0925.1091.145.1443.426.3437.9072.544.9603.3997 2.569.7411 5.0046.7411 2.4353 0 4.0502-.3413 5.0167-.7417.4845-.2008.7687-.4008.9157-.5461.0515-.0509.0791-.0873.093-.1086a5346 5346 0 0 0-.0112-4.1648m.0237 4.1426-.0012.0029zm-12.054.0031.0012.0028z"/></svg>
